images/3235015.svg

<?xml version="1.0" encoding="UTF-8"?>
<svg xmlns="http://www.w3.org/2000/svg" xmlns:xlink="http://www.w3.org/1999/xlink" width="300pt" height="300pt" viewBox="0 0 300 300" version="1.1">
<defs>
<g>
<symbol overflow="visible" id="glyph0-0">
<path style="stroke:none;" d="M 0.546875 1.9375 L 0.546875 -7.75 L 6.046875 -7.75 L 6.046875 1.9375 Z M 1.171875 1.328125 L 5.4375 1.328125 L 5.4375 -7.140625 L 1.171875 -7.140625 Z M 1.171875 1.328125 "/>
</symbol>
<symbol overflow="visible" id="glyph0-1">
<path style="stroke:none;" d="M 1.078125 -8.015625 L 2.546875 -8.015625 L 6.09375 -1.3125 L 6.09375 -8.015625 L 7.15625 -8.015625 L 7.15625 0 L 5.6875 0 L 2.125 -6.703125 L 2.125 0 L 1.078125 0 Z M 1.078125 -8.015625 "/>
</symbol>
<symbol overflow="visible" id="glyph0-2">
<path style="stroke:none;" d="M 1.078125 -8.015625 L 2.171875 -8.015625 L 2.171875 -4.734375 L 6.109375 -4.734375 L 6.109375 -8.015625 L 7.1875 -8.015625 L 7.1875 0 L 6.109375 0 L 6.109375 -3.8125 L 2.171875 -3.8125 L 2.171875 0 L 1.078125 0 Z M 1.078125 -8.015625 "/>
</symbol>
<symbol overflow="visible" id="glyph0-3">
<path style="stroke:none;" d="M 1.078125 -8.015625 L 5.6875 -8.015625 L 5.6875 -7.109375 L 2.171875 -7.109375 L 2.171875 -4.75 L 5.34375 -4.75 L 5.34375 -3.828125 L 2.171875 -3.828125 L 2.171875 0 L 1.078125 0 Z M 1.078125 -8.015625 "/>
</symbol>
</g>
</defs>
<g id="surface52577">
<rect x="0" y="0" width="300" height="300" style="fill:rgb(100%,100%,100%);fill-opacity:1;stroke:none;"/>
<path style="fill:none;stroke-width:1.2;stroke-linecap:butt;stroke-linejoin:miter;stroke:rgb(0%,0%,0%);stroke-opacity:1;stroke-miterlimit:10;" d="M 186.652344 123.429688 L 211.449219 133.476562 "/>
<path style="fill:none;stroke-width:1.2;stroke-linecap:butt;stroke-linejoin:miter;stroke:rgb(0%,0%,0%);stroke-opacity:1;stroke-miterlimit:10;" d="M 165.550781 139.886719 L 186.652344 123.429688 "/>
<path style="fill:none;stroke-width:1.2;stroke-linecap:butt;stroke-linejoin:miter;stroke:rgb(0%,0%,0%);stroke-opacity:1;stroke-miterlimit:10;" d="M 211.449219 133.476562 L 215.152344 159.976562 "/>
<path style="fill:none;stroke-width:1.2;stroke-linecap:butt;stroke-linejoin:miter;stroke:rgb(0%,0%,0%);stroke-opacity:1;stroke-miterlimit:10;" d="M 215.152344 159.976562 L 218.851562 186.476562 "/>
<path style="fill:none;stroke-width:1.2;stroke-linecap:butt;stroke-linejoin:miter;stroke:rgb(0%,0%,0%);stroke-opacity:1;stroke-miterlimit:10;" d="M 215.152344 159.976562 L 194.050781 176.429688 "/>
<path style="fill:none;stroke-width:1.2;stroke-linecap:butt;stroke-linejoin:miter;stroke:rgb(0%,0%,0%);stroke-opacity:1;stroke-miterlimit:10;" d="M 236.25 143.523438 L 215.152344 159.976562 "/>
<path style="fill:none;stroke-width:1.2;stroke-linecap:butt;stroke-linejoin:miter;stroke:rgb(0%,0%,0%);stroke-opacity:1;stroke-miterlimit:10;" d="M 218.851562 186.476562 L 243.648438 196.523438 "/>
<path style="fill:none;stroke-width:1.2;stroke-linecap:butt;stroke-linejoin:miter;stroke:rgb(0%,0%,0%);stroke-opacity:1;stroke-miterlimit:10;" d="M 243.648438 196.523438 L 254.199219 188.296875 "/>
<path style="fill:none;stroke-width:1.2;stroke-linecap:butt;stroke-linejoin:miter;stroke:rgb(0%,0%,100%);stroke-opacity:1;stroke-miterlimit:10;" d="M 254.199219 188.296875 L 264.75 180.070312 "/>
<path style="fill:none;stroke-width:1.2;stroke-linecap:butt;stroke-linejoin:miter;stroke:rgb(0%,0%,100%);stroke-opacity:1;stroke-miterlimit:10;" d="M 264.75 180.070312 L 262.898438 166.820312 "/>
<path style="fill:none;stroke-width:1.2;stroke-linecap:butt;stroke-linejoin:miter;stroke:rgb(0%,0%,0%);stroke-opacity:1;stroke-miterlimit:10;" d="M 262.898438 166.820312 L 261.050781 153.570312 "/>
<path style=" stroke:none;fill-rule:nonzero;fill:rgb(100%,100%,100%);fill-opacity:1;" d="M 256.75 173.570312 L 273.75 173.570312 L 273.75 186.570312 L 256.75 186.570312 Z M 256.75 173.570312 "/>
<g style="fill:rgb(0%,0%,100%);fill-opacity:1;">
  <use xlink:href="#glyph0-1" x="256.75" y="183.47168"/>
  <use xlink:href="#glyph0-2" x="264.733398" y="183.47168"/>
</g>
<path style="fill:none;stroke-width:1.2;stroke-linecap:butt;stroke-linejoin:miter;stroke:rgb(0%,0%,0%);stroke-opacity:1;stroke-miterlimit:10;" d="M 261.050781 153.570312 L 236.25 143.523438 "/>
<path style="fill:none;stroke-width:1.2;stroke-linecap:butt;stroke-linejoin:miter;stroke:rgb(0%,0%,0%);stroke-opacity:1;stroke-miterlimit:10;" d="M 194.050781 176.429688 L 181.652344 171.410156 "/>
<path style="fill:none;stroke-width:1.2;stroke-linecap:butt;stroke-linejoin:miter;stroke:rgb(0%,0%,100%);stroke-opacity:1;stroke-miterlimit:10;" d="M 181.652344 171.410156 L 169.25 166.386719 "/>
<path style="fill:none;stroke-width:1.2;stroke-linecap:butt;stroke-linejoin:miter;stroke:rgb(0%,0%,100%);stroke-opacity:1;stroke-miterlimit:10;" d="M 169.25 166.386719 L 167.402344 153.136719 "/>
<path style="fill:none;stroke-width:1.2;stroke-linecap:butt;stroke-linejoin:miter;stroke:rgb(0%,0%,0%);stroke-opacity:1;stroke-miterlimit:10;" d="M 167.402344 153.136719 L 165.550781 139.886719 "/>
<path style="fill:none;stroke-width:1.2;stroke-linecap:butt;stroke-linejoin:miter;stroke:rgb(0%,0%,100%);stroke-opacity:1;stroke-miterlimit:10;" d="M 169.25 166.386719 L 158.699219 174.613281 "/>
<path style="fill:none;stroke-width:1.2;stroke-linecap:butt;stroke-linejoin:miter;stroke:rgb(0%,0%,0%);stroke-opacity:1;stroke-miterlimit:10;" d="M 158.699219 174.613281 L 148.148438 182.839844 "/>
<path style=" stroke:none;fill-rule:nonzero;fill:rgb(100%,100%,100%);fill-opacity:1;" d="M 165.25 159.886719 L 173.25 159.886719 L 173.25 172.886719 L 165.25 172.886719 Z M 165.25 159.886719 "/>
<g style="fill:rgb(0%,0%,100%);fill-opacity:1;">
  <use xlink:href="#glyph0-1" x="165.25" y="169.788086"/>
</g>
<path style="fill:none;stroke-width:1.2;stroke-linecap:butt;stroke-linejoin:miter;stroke:rgb(0%,0%,0%);stroke-opacity:1;stroke-miterlimit:10;" d="M 148.148438 182.839844 L 123.351562 172.792969 "/>
<path style="fill:none;stroke-width:1.2;stroke-linecap:butt;stroke-linejoin:miter;stroke:rgb(0%,0%,0%);stroke-opacity:1;stroke-miterlimit:10;" d="M 123.351562 172.792969 L 119.652344 146.292969 "/>
<path style="fill:none;stroke-width:1.2;stroke-linecap:butt;stroke-linejoin:miter;stroke:rgb(0%,0%,0%);stroke-opacity:1;stroke-miterlimit:10;" d="M 116.746094 171.011719 L 113.785156 149.8125 "/>
<path style="fill:none;stroke-width:1.2;stroke-linecap:butt;stroke-linejoin:miter;stroke:rgb(0%,0%,0%);stroke-opacity:1;stroke-miterlimit:10;" d="M 102.25 189.246094 L 123.351562 172.792969 "/>
<path style="fill:none;stroke-width:1.2;stroke-linecap:butt;stroke-linejoin:miter;stroke:rgb(0%,0%,0%);stroke-opacity:1;stroke-miterlimit:10;" d="M 119.652344 146.292969 L 94.851562 136.246094 "/>
<path style="fill:none;stroke-width:1.2;stroke-linecap:butt;stroke-linejoin:miter;stroke:rgb(0%,0%,0%);stroke-opacity:1;stroke-miterlimit:10;" d="M 94.851562 136.246094 L 73.75 152.699219 "/>
<path style="fill:none;stroke-width:1.2;stroke-linecap:butt;stroke-linejoin:miter;stroke:rgb(0%,0%,0%);stroke-opacity:1;stroke-miterlimit:10;" d="M 96.613281 142.855469 L 79.734375 156.019531 "/>
<path style="fill:none;stroke-width:1.2;stroke-linecap:butt;stroke-linejoin:miter;stroke:rgb(0%,0%,0%);stroke-opacity:1;stroke-miterlimit:10;" d="M 94.851562 136.246094 L 91.152344 109.746094 "/>
<path style="fill:none;stroke-width:1.2;stroke-linecap:butt;stroke-linejoin:miter;stroke:rgb(0%,0%,0%);stroke-opacity:1;stroke-miterlimit:10;" d="M 73.75 152.699219 L 77.449219 179.199219 "/>
<path style="fill:none;stroke-width:1.2;stroke-linecap:butt;stroke-linejoin:miter;stroke:rgb(0%,0%,0%);stroke-opacity:1;stroke-miterlimit:10;" d="M 77.449219 179.199219 L 102.25 189.246094 "/>
<path style="fill:none;stroke-width:1.2;stroke-linecap:butt;stroke-linejoin:miter;stroke:rgb(0%,0%,0%);stroke-opacity:1;stroke-miterlimit:10;" d="M 82.292969 174.371094 L 102.132812 182.40625 "/>
<path style="fill:none;stroke-width:1.2;stroke-linecap:butt;stroke-linejoin:miter;stroke:rgb(0%,0%,0%);stroke-opacity:1;stroke-miterlimit:10;" d="M 77.449219 179.199219 L 56.351562 195.65625 "/>
<path style="fill:none;stroke-width:1.2;stroke-linecap:butt;stroke-linejoin:miter;stroke:rgb(0%,0%,0%);stroke-opacity:1;stroke-miterlimit:10;" d="M 56.351562 195.65625 L 45.800781 203.882812 "/>
<path style="fill:none;stroke-width:1.2;stroke-linecap:butt;stroke-linejoin:miter;stroke:rgb(20%,80%,80%);stroke-opacity:1;stroke-miterlimit:10;" d="M 45.800781 203.882812 L 35.25 212.109375 "/>
<path style="fill:none;stroke-width:1.2;stroke-linecap:butt;stroke-linejoin:miter;stroke:rgb(0%,0%,0%);stroke-opacity:1;stroke-miterlimit:10;" d="M 56.351562 195.65625 L 48.125 185.105469 "/>
<path style="fill:none;stroke-width:1.2;stroke-linecap:butt;stroke-linejoin:miter;stroke:rgb(20%,80%,80%);stroke-opacity:1;stroke-miterlimit:10;" d="M 48.125 185.105469 L 39.894531 174.554688 "/>
<path style="fill:none;stroke-width:1.2;stroke-linecap:butt;stroke-linejoin:miter;stroke:rgb(0%,0%,0%);stroke-opacity:1;stroke-miterlimit:10;" d="M 56.351562 195.65625 L 64.578125 206.203125 "/>
<path style="fill:none;stroke-width:1.2;stroke-linecap:butt;stroke-linejoin:miter;stroke:rgb(20%,80%,80%);stroke-opacity:1;stroke-miterlimit:10;" d="M 64.578125 206.203125 L 72.804688 216.753906 "/>
<path style=" stroke:none;fill-rule:nonzero;fill:rgb(100%,100%,100%);fill-opacity:1;" d="M 28.25 205.609375 L 35.25 205.609375 L 35.25 218.609375 L 28.25 218.609375 Z M 28.25 205.609375 "/>
<g style="fill:rgb(20%,80%,80%);fill-opacity:1;">
  <use xlink:href="#glyph0-3" x="28.25" y="215.510742"/>
</g>
<path style=" stroke:none;fill-rule:nonzero;fill:rgb(100%,100%,100%);fill-opacity:1;" d="M 32.894531 168.054688 L 39.894531 168.054688 L 39.894531 181.054688 L 32.894531 181.054688 Z M 32.894531 168.054688 "/>
<g style="fill:rgb(20%,80%,80%);fill-opacity:1;">
  <use xlink:href="#glyph0-3" x="32.894531" y="177.956055"/>
</g>
<path style=" stroke:none;fill-rule:nonzero;fill:rgb(100%,100%,100%);fill-opacity:1;" d="M 69.804688 210.253906 L 76.804688 210.253906 L 76.804688 223.253906 L 69.804688 223.253906 Z M 69.804688 210.253906 "/>
<g style="fill:rgb(20%,80%,80%);fill-opacity:1;">
  <use xlink:href="#glyph0-3" x="69.804688" y="220.155273"/>
</g>
<path style="fill:none;stroke-width:1.2;stroke-linecap:butt;stroke-linejoin:miter;stroke:rgb(0%,0%,0%);stroke-opacity:1;stroke-miterlimit:10;" d="M 91.152344 109.746094 L 89.300781 96.496094 "/>
<path style="fill:none;stroke-width:1.2;stroke-linecap:butt;stroke-linejoin:miter;stroke:rgb(20%,80%,80%);stroke-opacity:1;stroke-miterlimit:10;" d="M 89.300781 96.496094 L 87.453125 83.246094 "/>
<path style="fill:none;stroke-width:1.2;stroke-linecap:butt;stroke-linejoin:miter;stroke:rgb(0%,0%,0%);stroke-opacity:1;stroke-miterlimit:10;" d="M 91.152344 109.746094 L 104.402344 107.894531 "/>
<path style="fill:none;stroke-width:1.2;stroke-linecap:butt;stroke-linejoin:miter;stroke:rgb(20%,80%,80%);stroke-opacity:1;stroke-miterlimit:10;" d="M 104.402344 107.894531 L 117.652344 106.046875 "/>
<path style="fill:none;stroke-width:1.2;stroke-linecap:butt;stroke-linejoin:miter;stroke:rgb(0%,0%,0%);stroke-opacity:1;stroke-miterlimit:10;" d="M 91.152344 109.746094 L 77.902344 111.59375 "/>
<path style="fill:none;stroke-width:1.2;stroke-linecap:butt;stroke-linejoin:miter;stroke:rgb(20%,80%,80%);stroke-opacity:1;stroke-miterlimit:10;" d="M 77.902344 111.59375 L 64.652344 113.445312 "/>
<path style=" stroke:none;fill-rule:nonzero;fill:rgb(100%,100%,100%);fill-opacity:1;" d="M 84.453125 76.746094 L 91.453125 76.746094 L 91.453125 89.746094 L 84.453125 89.746094 Z M 84.453125 76.746094 "/>
<g style="fill:rgb(20%,80%,80%);fill-opacity:1;">
  <use xlink:href="#glyph0-3" x="84.453125" y="86.647461"/>
</g>
<path style=" stroke:none;fill-rule:nonzero;fill:rgb(100%,100%,100%);fill-opacity:1;" d="M 114.652344 99.546875 L 121.652344 99.546875 L 121.652344 112.546875 L 114.652344 112.546875 Z M 114.652344 99.546875 "/>
<g style="fill:rgb(20%,80%,80%);fill-opacity:1;">
  <use xlink:href="#glyph0-3" x="114.652344" y="109.448242"/>
</g>
<path style=" stroke:none;fill-rule:nonzero;fill:rgb(100%,100%,100%);fill-opacity:1;" d="M 57.652344 106.945312 L 64.652344 106.945312 L 64.652344 119.945312 L 57.652344 119.945312 Z M 57.652344 106.945312 "/>
<g style="fill:rgb(20%,80%,80%);fill-opacity:1;">
  <use xlink:href="#glyph0-3" x="57.652344" y="116.84668"/>
</g>
</g>
</svg>

<svg xmlns="http://www.w3.org/2000/svg" xmlns:xlink="http://www.w3.org/1999/xlink" width="300pt" height="300pt" viewBox="0 0 300 300"><defs><symbol overflow="visible"><path d="M.547 1.938V-7.75h5.5v9.688zm.625-.61h4.266v-8.47H1.171zm0 0"/></symbol><symbol overflow="visible" id="a"><path d="M1.078-8.016h1.47l3.546 6.704v-6.704h1.062V0H5.688L2.124-6.703V0H1.078zm0 0"/></symbol><symbol overflow="visible" id="b"><path d="M1.078-8.016h1.094v3.282H6.11v-3.282h1.077V0H6.11v-3.813H2.17V0H1.078zm0 0"/></symbol><symbol overflow="visible" id="c"><path d="M1.078-8.016h4.61v.907H2.171v2.36h3.172v.922H2.172V0H1.078zm0 0"/></symbol></defs><g><path fill="#fff" d="M0 0h300v300H0z"/><path d="M186.652 123.43l24.797 10.047M165.55 139.887l21.102-16.457M211.45 133.477l3.702 26.5M215.152 159.977l3.7 26.5M215.152 159.977l-21.1 16.453M236.25 143.523l-21.098 16.454M218.852 186.477l24.796 10.046M243.648 196.523l10.55-8.226" stroke-width="1.2" stroke="#000" stroke-miterlimit="10" fill="none"/><path d="M254.2 188.297l10.55-8.227M264.75 180.07l-1.852-13.25" stroke-width="1.2" stroke="#00f" stroke-miterlimit="10" fill="none"/><path d="M262.898 166.82l-1.847-13.25" stroke-width="1.2" stroke="#000" stroke-miterlimit="10" fill="none"/><path d="M256.75 173.57h17v13h-17zm0 0" fill="#fff"/><g fill="#00f"><use xlink:href="#a" x="256.75" y="183.472"/><use xlink:href="#b" x="264.733" y="183.472"/></g><path d="M261.05 153.57l-24.8-10.047M194.05 176.43l-12.398-5.02" stroke-width="1.2" stroke="#000" stroke-miterlimit="10" fill="none"/><path d="M181.652 171.41l-12.402-5.023M169.25 166.387l-1.848-13.25" stroke-width="1.2" stroke="#00f" stroke-miterlimit="10" fill="none"/><path d="M167.402 153.137l-1.85-13.25" stroke-width="1.2" stroke="#000" stroke-miterlimit="10" fill="none"/><path d="M169.25 166.387l-10.55 8.226" stroke-width="1.2" stroke="#00f" stroke-miterlimit="10" fill="none"/><path d="M158.7 174.613l-10.552 8.227" stroke-width="1.2" stroke="#000" stroke-miterlimit="10" fill="none"/><path d="M165.25 159.887h8v13h-8zm0 0" fill="#fff"/><use xlink:href="#a" x="165.25" y="169.788" fill="#00f"/><path d="M148.148 182.84l-24.796-10.047M123.352 172.793l-3.7-26.5M116.746 171.012l-2.96-21.2M102.25 189.246l21.102-16.453M119.652 146.293l-24.8-10.047M94.852 136.246L73.75 152.7M96.613 142.855l-16.88 13.165M94.852 136.246l-3.7-26.5M73.75 152.7l3.7 26.5M77.45 179.2l24.8 10.046M82.293 174.37l19.84 8.036M77.45 179.2L56.35 195.655M56.352 195.656l-10.55 8.227" stroke-width="1.2" stroke="#000" stroke-miterlimit="10" fill="none"/><path d="M45.8 203.883l-10.55 8.226" stroke-width="1.2" stroke="#3cc" stroke-miterlimit="10" fill="none"/><path d="M56.352 195.656l-8.227-10.55" stroke-width="1.2" stroke="#000" stroke-miterlimit="10" fill="none"/><path d="M48.125 185.105l-8.23-10.55" stroke-width="1.2" stroke="#3cc" stroke-miterlimit="10" fill="none"/><path d="M56.352 195.656l8.226 10.547" stroke-width="1.2" stroke="#000" stroke-miterlimit="10" fill="none"/><path d="M64.578 206.203l8.227 10.55" stroke-width="1.2" stroke="#3cc" stroke-miterlimit="10" fill="none"/><path d="M28.25 205.61h7v13h-7zm0 0" fill="#fff"/><use xlink:href="#c" x="28.25" y="215.511" fill="#3cc"/><path d="M32.895 168.055h7v13h-7zm0 0" fill="#fff"/><use xlink:href="#c" x="32.895" y="177.956" fill="#3cc"/><path d="M69.805 210.254h7v13h-7zm0 0" fill="#fff"/><use xlink:href="#c" x="69.805" y="220.155" fill="#3cc"/><path d="M91.152 109.746l-1.85-13.25" stroke-width="1.2" stroke="#000" stroke-miterlimit="10" fill="none"/><path d="M89.3 96.496l-1.847-13.25" stroke-width="1.2" stroke="#3cc" stroke-miterlimit="10" fill="none"/><path d="M91.152 109.746l13.25-1.85" stroke-width="1.2" stroke="#000" stroke-miterlimit="10" fill="none"/><path d="M104.402 107.895l13.25-1.848" stroke-width="1.2" stroke="#3cc" stroke-miterlimit="10" fill="none"/><path d="M91.152 109.746l-13.25 1.848" stroke-width="1.2" stroke="#000" stroke-miterlimit="10" fill="none"/><path d="M77.902 111.594l-13.25 1.85" stroke-width="1.2" stroke="#3cc" stroke-miterlimit="10" fill="none"/><path d="M84.453 76.746h7v13h-7zm0 0" fill="#fff"/><use xlink:href="#c" x="84.453" y="86.647" fill="#3cc"/><path d="M114.652 99.547h7v13h-7zm0 0" fill="#fff"/><use xlink:href="#c" x="114.652" y="109.448" fill="#3cc"/><path d="M57.652 106.945h7v13h-7zm0 0" fill="#fff"/><use xlink:href="#c" x="57.652" y="116.847" fill="#3cc"/></g></svg>
